src/pos-icons/sign-real-estate.svg

<svg height="24" viewBox="0 0 24 24" width="24" xmlns="http://www.w3.org/2000/svg"><path d="m18 8h-10c-1.1 0-2 .9-2 2v6c0 1.11.9 2 2 2h10c1.11 0 2-.89 2-2v-6c0-1.1-.89-2-2-2m-4 8h-6v-2h6zm4-4h-10v-2h10zm4-6h-18v16h-2v-20h2v2h18z"/></svg>

<?xml version="1.0" encoding="UTF-8"?><!DOCTYPE svg PUBLIC "-//W3C//DTD SVG 1.1//EN" "http://www.w3.org/Graphics/SVG/1.1/DTD/svg11.dtd"><svg xmlns="http://www.w3.org/2000/svg" xmlns:xlink="http://www.w3.org/1999/xlink" version="1.1" id="mdi-sign-real-estate" width="24" height="24" viewBox="0 0 24 24"><path d="M18 8H8C6.9 8 6 8.9 6 10V16C6 17.11 6.9 18 8 18H18C19.11 18 20 17.11 20 16V10C20 8.9 19.11 8 18 8M14 16H8V14H14V16M18 12H8V10H18V12M22 6H4V22H2V2H4V4H22V6Z" /></svg>
